src/mimetypes/org.rncbc.qsampler.application-x-qsampler-session.svg

<?xml version="1.0" encoding="UTF-8" standalone="no"?>
<!-- Created with Inkscape (http://www.inkscape.org/) -->

<svg
   version="1.0"
   width="32"
   height="32"
   viewBox="0.5 25.1 32 32"
   id="svg2478"
   xml:space="preserve"
   inkscape:version="1.1.1 (3bf5ae0d25, 2021-09-20)"
   sodipodi:docname="qsampler-document-mime-1.svg"
   inkscape:export-filename="qsampler-document-mime-1.png"
   inkscape:export-xdpi="96"
   inkscape:export-ydpi="96"
   xmlns:inkscape="http://www.inkscape.org/namespaces/inkscape"
   xmlns:sodipodi="http://sodipodi.sourceforge.net/DTD/sodipodi-0.dtd"
   xmlns:xlink="http://www.w3.org/1999/xlink"
   xmlns="http://www.w3.org/2000/svg"
   xmlns:svg="http://www.w3.org/2000/svg"
   xmlns:rdf="http://www.w3.org/1999/02/22-rdf-syntax-ns#"
   xmlns:cc="http://creativecommons.org/ns#"
   xmlns:dc="http://purl.org/dc/elements/1.1/"><sodipodi:namedview
     pagecolor="#ffffff"
     bordercolor="#666666"
     borderopacity="1"
     objecttolerance="10"
     gridtolerance="10"
     guidetolerance="10"
     inkscape:pageopacity="0"
     inkscape:pageshadow="2"
     inkscape:window-width="1920"
     inkscape:window-height="1003"
     id="namedview207"
     showgrid="true"
     inkscape:zoom="25.15625"
     inkscape:cx="15.980124"
     inkscape:cy="16"
     inkscape:window-x="0"
     inkscape:window-y="0"
     inkscape:window-maximized="1"
     inkscape:current-layer="g3102"
     inkscape:pagecheckerboard="0"
     width="32px"><inkscape:grid
       type="xygrid"
       id="grid110"
       spacingx="0.5"
       spacingy="0.5" /></sodipodi:namedview><metadata
     id="metadata54"><rdf:RDF><cc:Work
         rdf:about=""><dc:format>image/svg+xml</dc:format><dc:type
           rdf:resource="http://purl.org/dc/dcmitype/StillImage" /></cc:Work></rdf:RDF></metadata><defs
     id="defs2480"><linearGradient
       id="linearGradient3589"
       inkscape:swatch="solid"><stop
         style="stop-color:#0052ff;stop-opacity:1;"
         offset="0"
         id="stop3587" /></linearGradient><linearGradient
       id="linearGradient3251"><stop
         id="stop3253"
         style="stop-color:#000000;stop-opacity:1"
         offset="0" /><stop
         id="stop3255"
         style="stop-color:#000000;stop-opacity:0"
         offset="1" /></linearGradient><linearGradient
       id="linearGradient3591"><stop
         id="stop3593"
         style="stop-color:#ffffff;stop-opacity:1"
         offset="0" /><stop
         id="stop3595"
         style="stop-color:#969696;stop-opacity:1"
         offset="1" /></linearGradient><linearGradient
       id="linearGradient3399"><stop
         id="stop3401"
         style="stop-color:#000000;stop-opacity:0.23529412"
         offset="0" /><stop
         id="stop3403"
         style="stop-color:#969696;stop-opacity:0"
         offset="1" /></linearGradient><linearGradient
       x1="80.5"
       y1="506"
       x2="229.86604"
       y2="357.5979"
       id="linearGradient3405"
       xlink:href="#linearGradient3399"
       gradientUnits="userSpaceOnUse"
       gradientTransform="matrix(0.62918911,0,0,0.62918911,-0.487383,11.005584)" /><linearGradient
       x1="368.36868"
       y1="115.66505"
       x2="389.52469"
       y2="95.825417"
       id="linearGradient3597"
       xlink:href="#linearGradient3591"
       gradientUnits="userSpaceOnUse"
       gradientTransform="matrix(0.62918911,0,0,0.62918911,-0.317944,10.836149)" /><linearGradient
       x1="348.03799"
       y1="139.48338"
       x2="394.19592"
       y2="83.418686"
       id="linearGradient3257"
       xlink:href="#linearGradient3251"
       gradientUnits="userSpaceOnUse"
       gradientTransform="matrix(0.62918911,0,0,0.62918911,-0.317944,10.836149)" /><linearGradient
       inkscape:collect="always"
       xlink:href="#linearGradient3251"
       id="linearGradient1159"
       x1="272.24622"
       y1="72.129974"
       x2="201.71465"
       y2="122.50967"
       gradientUnits="userSpaceOnUse" /><radialGradient
       cx="316.60211"
       cy="410.13586"
       r="291.1347"
       fx="169.89993"
       fy="557.98413"
       id="radialGradient3193"
       xlink:href="#linearGradient485"
       gradientUnits="userSpaceOnUse"
       spreadMethod="pad" /><linearGradient
       id="linearGradient485"><stop
         id="stop486"
         style="stop-color:#0052ff;stop-opacity:1"
         offset="0" /><stop
         id="stop487"
         style="stop-color:#000072;stop-opacity:1"
         offset="1" /></linearGradient><radialGradient
       cx="316.20163"
       cy="410.48181"
       r="293.25412"
       fx="168.43147"
       fy="559.40643"
       id="radialGradient3195"
       xlink:href="#linearGradient485"
       gradientUnits="userSpaceOnUse"
       spreadMethod="pad" /><radialGradient
       cx="231.45271"
       cy="366.20547"
       r="508.57837"
       fx="231.45271"
       fy="366.20547"
       id="radialGradient3197"
       xlink:href="#linearGradient743"
       gradientUnits="userSpaceOnUse"
       gradientTransform="matrix(0.51694652,0,0,0.44645471,-19.568181,-18.428523)" /><linearGradient
       id="linearGradient743"><stop
         id="stop744"
         style="stop-color:#ffd7ff;stop-opacity:1"
         offset="0" /><stop
         id="stop745"
         style="stop-color:#4040df;stop-opacity:0.49803922"
         offset="1" /></linearGradient><linearGradient
       x1="239.45113"
       y1="121.25542"
       x2="239.4511"
       y2="373.43777"
       id="linearGradient3199"
       xlink:href="#linearGradient2267"
       gradientUnits="userSpaceOnUse"
       gradientTransform="matrix(0.71659119,-0.37399585,0.17304636,0.33156417,-95.624536,86.688328)" /><linearGradient
       id="linearGradient2267"><stop
         id="stop2269"
         style="stop-color:#ffffff;stop-opacity:1"
         offset="0" /><stop
         id="stop2271"
         style="stop-color:#ffffff;stop-opacity:0"
         offset="1" /></linearGradient><radialGradient
       cx="990.79266"
       cy="202.91145"
       r="52.038383"
       fx="990.44568"
       fy="200.55925"
       id="radialGradient3060"
       xlink:href="#linearGradient646"
       gradientUnits="userSpaceOnUse"
       gradientTransform="scale(0.98198,1.018351)"
       spreadMethod="pad" /><linearGradient
       id="linearGradient646"><stop
         id="stop647"
         style="stop-color:#ffffff;stop-opacity:0.49803922"
         offset="0" /><stop
         id="stop648"
         style="stop-color:#00007f;stop-opacity:0"
         offset="1" /></linearGradient></defs><g
     id="g1233"
     inkscape:label="shadow"
     style="display:inline"
     transform="matrix(0.09627458,0,0,0.0985107,0.97778222,22.947854)"><path
       d="M 52.165563,42.151069 51.914266,336.67391 H 282.81963 c 0,0 0.47764,-152.38662 0.42481,-198.458 -0.0136,-11.87636 -0.16044,-18.1147 -7.37193,-25.8937 -33.23953,-35.855321 -53.34753,-51.869509 -66.59739,-64.318704 -3.71827,-3.493585 -5.37766,-6.582901 -18.3541,-6.708443 -18.22677,-0.176324 -76.87204,0.738503 -138.755457,0.856006 z"
       id="path4361"
       style="display:inline;fill:none;fill-opacity:0.2;fill-rule:evenodd;stroke:#000000;stroke-width:10.2684;stroke-linecap:butt;stroke-linejoin:bevel;stroke-miterlimit:4;stroke-dasharray:none;stroke-opacity:0.2;paint-order:stroke fill markers"
       inkscape:label="shadow3"
       sodipodi:nodetypes="cccssssc" /><path
       d="M 65.840457,40.220841 65.42229,523.12414 h 384.23385 c 0,0 0.79481,-249.85499 0.7069,-325.39419 -0.0227,-19.47263 -0.26699,-29.70109 -12.26713,-42.45563 C 382.78428,96.485485 349.32392,70.228423 327.27574,49.816569 321.08842,44.088444 318.32715,39.023163 296.73393,38.817323 266.40402,38.52822 168.81642,40.028182 65.840457,40.220841 Z"
       transform="matrix(0.60095009,0,0,0.60990025,7.405256,12.544777)"
       id="path964"
       style="display:inline;fill:#000000;fill-opacity:0.2;fill-rule:evenodd;stroke:#000000;stroke-width:8.48055;stroke-linecap:butt;stroke-linejoin:bevel;stroke-miterlimit:4;stroke-dasharray:none;stroke-opacity:0.2;paint-order:stroke fill markers"
       inkscape:label="shadow2"
       sodipodi:nodetypes="cccssssc" /><path
       d="M 46.972091,37.075476 46.720794,331.59832 H 277.62616 c 0,0 0.47764,-152.38662 0.42482,-198.458 -0.0136,-11.87636 -0.16045,-18.1147 -7.37194,-25.8937 C 237.43951,71.391296 217.33151,55.377108 204.08165,42.927913 200.36338,39.434328 198.704,36.345012 185.72755,36.21947 167.50079,36.043146 108.85551,36.957973 46.972091,37.075476 Z"
       id="path4241"
       style="display:inline;fill:#000000;fill-opacity:0.2;fill-rule:evenodd;stroke:#000000;stroke-width:10.2684;stroke-linecap:round;stroke-linejoin:bevel;stroke-miterlimit:4;stroke-dasharray:none;stroke-opacity:0.2;paint-order:stroke fill markers"
       inkscape:label="shadow1"
       sodipodi:nodetypes="cccssssc" /></g><g
     id="g118"
     inkscape:label="paper"
     transform="matrix(0.09924633,0,0,0.09924633,0.48056195,22.941365)"
     style="display:inline"><path
       d="M 50.331779,35.437445 V 329.20584 H 274.32311 c 0,0 0.28117,-152.22456 0.23056,-197.42061 -0.013,-11.6507 -1.95096,-20.74724 -9.2223,-28.03658 -35.77723,-35.865747 -43.50383,-43.407781 -56.20288,-55.620448 -3.5637,-3.427212 -9.7188,-12.106492 -20.77247,-12.690757 -17.46989,-0.03146 -78.71332,-0.11528 -138.024241,0 z"
       id="path3419"
       style="fill:#d7e3f4;fill-opacity:1;fill-rule:evenodd;stroke:#000000;stroke-width:0.251676;stroke-linecap:butt;stroke-linejoin:miter;stroke-miterlimit:4;stroke-dasharray:none;stroke-opacity:1"
       inkscape:label="paper4" /><rect
       width="166.49677"
       height="206.69617"
       x="50.331779"
       y="122.50967"
       id="rect3395"
       style="fill:url(#linearGradient3405);fill-opacity:1;stroke:#000030;stroke-width:0;stroke-miterlimit:4;stroke-dasharray:none;stroke-opacity:1"
       inkscape:label="paper3" /><path
       d="m 206.75261,117.4717 c 30.22782,-5.03797 47.84296,-7.25512 61.72437,-3.50238 6.17244,1.66868 6.17598,1.83279 6.07669,17.81591 -0.50827,-13.88667 -1.95096,-20.74724 -9.2223,-28.03658 C 229.55414,67.882903 221.82754,60.340869 209.12849,48.128202 198.87863,37.092596 193.88285,35.729577 188.35602,35.437445 c 16.95253,1.321769 18.39659,31.654557 18.39659,82.034255 z"
       id="path2414"
       style="display:inline;fill:url(#linearGradient1159);fill-opacity:1;fill-rule:evenodd;stroke:none;stroke-width:0.251898;stroke-linecap:butt;stroke-linejoin:miter;stroke-miterlimit:4;stroke-dasharray:none;stroke-opacity:1"
       inkscape:label="paper2"
       sodipodi:nodetypes="cscsccc" /><path
       d="m 217.20738,99.68529 c 14.98975,0.595 39.58408,4.63362 48.86639,11.07976 3.92779,2.72767 8.57919,5.03706 8.4799,21.02018 -0.50827,-13.88667 -1.95096,-20.74724 -9.2223,-28.03658 C 229.55414,67.882903 221.82754,60.340869 209.12849,48.128202 198.87863,37.092596 193.88285,35.729577 188.35602,35.437445 c 16.95253,1.321769 25.12944,17.978884 28.85136,64.247845 z"
       id="path1230"
       style="display:inline;fill:url(#linearGradient3597);fill-opacity:1;fill-rule:evenodd;stroke:url(#linearGradient3257);stroke-width:0.251676;stroke-linecap:butt;stroke-linejoin:miter;stroke-miterlimit:4;stroke-dasharray:none;stroke-opacity:1"
       inkscape:label="paper1" /></g><g
     transform="matrix(0.05607598,0,0,0.05607598,13.489928,36.405775)"
     id="g3102"
     style="display:inline"
     inkscape:label="icon"><path
       d="M 321.28664,150.8485 A 153.46644,156.95075 40.812837 1 1 12.809298,187.77283 153.46644,156.95075 40.812837 1 1 321.28664,150.8485 Z"
       id="path6870"
       style="display:inline;fill:#000000;fill-opacity:0.2;fill-rule:evenodd;stroke:#000000;stroke-width:17.83294737;stroke-linecap:butt;stroke-linejoin:bevel;stroke-miterlimit:4;stroke-dasharray:none;stroke-opacity:0.2;paint-order:stroke fill markers"
       inkscape:label="path9" /><path
       d="M 321.28664,150.8485 A 153.46644,156.95075 40.812837 1 1 12.809298,187.77283 153.46644,156.95075 40.812837 1 1 321.28664,150.8485 Z"
       id="path1454"
       style="display:inline;fill:#000000;fill-opacity:0.2;fill-rule:evenodd;stroke:#000000;stroke-width:8.91647;stroke-linecap:butt;stroke-linejoin:bevel;stroke-miterlimit:4;stroke-dasharray:none;stroke-opacity:0.2;paint-order:stroke fill markers"
       inkscape:label="path8" /><path
       d="m 707.05579,362.61322 a 335.4404,335.44043 0 1 1 -670.880802,0 335.4404,335.44043 0 1 1 670.880802,0 z"
       id="path1400"
       style="display:inline;fill:#000000;fill-opacity:0.2;fill-rule:evenodd;stroke:#000000;stroke-width:38.5434;stroke-linecap:butt;stroke-linejoin:bevel;stroke-miterlimit:4;stroke-dasharray:none;stroke-opacity:0.2;paint-order:stroke fill markers"
       inkscape:label="path7"
       transform="matrix(0.45980947,-0.05503859,0.0446589,0.46020629,-28.934685,13.970499)" /><path
       d="m 707.05579,362.61322 a 335.4404,335.44043 0 1 1 -670.880802,0 335.4404,335.44043 0 1 1 670.880802,0 z"
       transform="matrix(0.45980947,-0.05503859,0.0446589,0.46020629,-28.934685,13.970499)"
       id="path948"
       style="display:inline;fill:#000000;fill-opacity:0.197232;fill-rule:evenodd;stroke:#000000;stroke-width:19.2717;stroke-linecap:butt;stroke-linejoin:bevel;stroke-miterlimit:4;stroke-dasharray:none;stroke-opacity:0.2;paint-order:stroke fill markers"
       inkscape:label="path6" /><path
       d="m 707.05579,362.61322 a 335.4404,335.44043 0 1 1 -670.880802,0 335.4404,335.44043 0 1 1 670.880802,0 z"
       transform="matrix(0.45980947,-0.05503859,0.0446589,0.46020629,-28.934685,13.970499)"
       id="path650"
       style="display:inline;fill:url(#radialGradient3193);fill-opacity:1;fill-rule:evenodd;stroke:#000000;stroke-width:4.997;stroke-linecap:butt;stroke-linejoin:miter;stroke-dasharray:none;stroke-opacity:1"
       inkscape:label="path5" /><path
       d="m 707.05579,362.61322 a 335.4404,335.44043 0 1 1 -670.880802,0 335.4404,335.44043 0 1 1 670.880802,0 z"
       transform="matrix(0.40396764,-0.04490247,0.0392352,0.37545102,-5.4316151,41.73224)"
       id="path651"
       style="display:inline;fill:url(#radialGradient3195);fill-opacity:1;fill-rule:evenodd;stroke:#0000ff;stroke-width:9.9173;stroke-linecap:butt;stroke-linejoin:miter;stroke-dasharray:none;stroke-opacity:0.1883"
       inkscape:label="path4" /><path
       d="m 185.58264,109.32335 c -13.7325,-3.72577 -118.282566,9.18846 -107.134185,37.84031 12.406093,32.62541 105.882235,39.10302 102.254665,68.95499 -1.2899,10.37756 -33.15488,20.29672 -57.56309,19.24655 C 97.376201,234.2567 77.090049,229.05228 59.16016,208.75748 47.902055,196.01442 43.239058,180.52549 42.036449,162.09579 40.83384,143.66614 48.129962,123.26339 58.322519,108.16042 80.715746,74.978878 108.65453,55.751115 147.42718,50.610494 238.85246,38.928763 273.51461,116.4728 273.20134,114.84945 272.87034,113.13357 236.59438,38.266326 148.07564,45.690236 111.46329,48.760869 85.293424,67.194083 63.92097,89.294549 49.029288,104.7046 37.897769,126.45628 34.789424,148.07648 c -4.537515,31.56026 3.917643,59.39422 25.319833,79.57363 17.943821,16.91867 46.810803,23.13051 77.380893,23.81086 42.93976,0.95569 92.93986,-7.12927 93.34937,-24.93214 9.5e-4,-32.12325 -73.4622,-41.83319 -88.9924,-57.99205 -30.44258,-31.05534 48.15048,-24.5996 62.08572,-19.14243 1.34322,0.18019 -11.33671,-38.26086 -18.3502,-40.071 z"
       id="path652"
       style="font-size:12px;display:inline;fill:url(#radialGradient3197);stroke:#58b8ff;stroke-width:4.15133;stroke-opacity:0.721569"
       inkscape:label="path3" /><path
       d="M 36.695334,136.51371 C 50.596723,161.667 98.15448,142.2852 140.84619,118.86155 183.53834,95.437612 225.38424,67.327901 211.48288,42.174643 197.58155,17.02141 131.35318,18.855748 95.363104,39.123198 53.005242,63.089397 22.794046,111.36052 36.695334,136.51371 Z"
       id="path653"
       style="font-size:12px;display:inline;fill:url(#linearGradient3199);fill-opacity:1;fill-rule:evenodd;stroke-width:5"
       inkscape:label="path2" /><path
       d="m 1043.894,213.02252 a 49.274715,51.099751 0 1 1 -98.54943,0 49.274715,51.099751 0 1 1 98.54943,0 z"
       transform="matrix(1.7116642,0,0,1.4232571,-1571.2435,-154.88305)"
       id="path709"
       style="display:inline;fill:url(#radialGradient3060);fill-opacity:1;fill-rule:evenodd;stroke:none"
       inkscape:label="path1" /></g></svg>

<?xml version="1.0" encoding="UTF-8"?>
<svg width="32" height="32" version="1.0" viewBox=".5 25.1 32 32" xmlns="http://www.w3.org/2000/svg" xmlns:xlink="http://www.w3.org/1999/xlink">
  <defs>
    <linearGradient id="linearGradient3251">
      <stop offset="0"/>
      <stop stop-opacity="0" offset="1"/>
    </linearGradient>
    <linearGradient id="linearGradient3405" x1="80.5" x2="229.87" y1="506" y2="357.6" gradientTransform="matrix(.62919 0 0 .62919 -.48738 11.006)" gradientUnits="userSpaceOnUse">
      <stop stop-opacity=".23529" offset="0"/>
      <stop stop-color="#969696" stop-opacity="0" offset="1"/>
    </linearGradient>
    <linearGradient id="linearGradient3597" x1="368.37" x2="389.52" y1="115.67" y2="95.825" gradientTransform="matrix(.62919 0 0 .62919 -.31794 10.836)" gradientUnits="userSpaceOnUse">
      <stop stop-color="#fff" offset="0"/>
      <stop stop-color="#969696" offset="1"/>
    </linearGradient>
    <linearGradient id="linearGradient3257" x1="348.04" x2="394.2" y1="139.48" y2="83.419" gradientTransform="matrix(.62919 0 0 .62919 -.31794 10.836)" gradientUnits="userSpaceOnUse" xlink:href="#linearGradient3251"/>
    <linearGradient id="linearGradient1159" x1="272.25" x2="201.71" y1="72.13" y2="122.51" gradientUnits="userSpaceOnUse" xlink:href="#linearGradient3251"/>
    <radialGradient id="radialGradient3193" cx="316.6" cy="410.14" r="291.13" fx="169.9" fy="557.98" gradientUnits="userSpaceOnUse" xlink:href="#linearGradient485"/>
    <linearGradient id="linearGradient485">
      <stop stop-color="#0052ff" offset="0"/>
      <stop stop-color="#000072" offset="1"/>
    </linearGradient>
    <radialGradient id="radialGradient3195" cx="316.2" cy="410.48" r="293.25" fx="168.43" fy="559.41" gradientUnits="userSpaceOnUse" xlink:href="#linearGradient485"/>
    <radialGradient id="radialGradient3197" cx="231.45" cy="366.21" r="508.58" gradientTransform="matrix(.51695 0 0 .44645 -19.568 -18.429)" gradientUnits="userSpaceOnUse">
      <stop stop-color="#ffd7ff" offset="0"/>
      <stop stop-color="#4040df" stop-opacity=".49804" offset="1"/>
    </radialGradient>
    <linearGradient id="linearGradient3199" x1="239.45" x2="239.45" y1="121.26" y2="373.44" gradientTransform="matrix(.71659 -.374 .17305 .33156 -95.625 86.688)" gradientUnits="userSpaceOnUse">
      <stop stop-color="#fff" offset="0"/>
      <stop stop-color="#fff" stop-opacity="0" offset="1"/>
    </linearGradient>
    <radialGradient id="radialGradient3060" cx="990.79" cy="202.91" r="52.038" fx="990.45" fy="200.56" gradientTransform="scale(.98198 1.0184)" gradientUnits="userSpaceOnUse">
      <stop stop-color="#fff" stop-opacity=".49804" offset="0"/>
      <stop stop-color="#00007f" stop-opacity="0" offset="1"/>
    </radialGradient>
  </defs>
  <g transform="matrix(.096275 0 0 .098511 .97778 22.948)" stroke="#000" stroke-linejoin="bevel" stroke-opacity=".2">
    <path d="m52.166 42.151-0.2513 294.52h230.91s0.47764-152.39 0.42481-198.46c-0.0136-11.876-0.16044-18.115-7.3719-25.894-33.24-35.855-53.348-51.87-66.597-64.319-3.7183-3.4936-5.3777-6.5829-18.354-6.7084-18.227-0.17632-76.872 0.7385-138.76 0.85601z" fill="none" stroke-width="10.268" style="paint-order:stroke fill markers"/>
    <path transform="matrix(.60095 0 0 .6099 7.4053 12.545)" d="m65.84 40.221-0.41817 482.9h384.23s0.79481-249.85 0.7069-325.39c-0.0227-19.473-0.26699-29.701-12.267-42.456-55.312-58.789-88.772-85.046-110.82-105.46-6.1873-5.7281-8.9486-10.793-30.542-10.999-30.33-0.2891-127.92 1.2109-230.89 1.4035z" fill-opacity=".2" fill-rule="evenodd" stroke-width="8.4806" style="paint-order:stroke fill markers"/>
    <path d="m46.972 37.075-0.2513 294.52h230.91s0.47764-152.39 0.42482-198.46c-0.0136-11.876-0.16045-18.115-7.3719-25.894-33.24-35.855-53.348-51.87-66.597-64.319-3.7183-3.4936-5.3776-6.5829-18.354-6.7084-18.227-0.17632-76.872 0.7385-138.76 0.85601z" fill-opacity=".2" fill-rule="evenodd" stroke-linecap="round" stroke-width="10.268" style="paint-order:stroke fill markers"/>
  </g>
  <g transform="matrix(.099246 0 0 .099246 .48056 22.941)">
    <path d="m50.332 35.437v293.77h223.99s0.28117-152.22 0.23056-197.42c-0.013-11.651-1.951-20.747-9.2223-28.037-35.777-35.866-43.504-43.408-56.203-55.62-3.5637-3.4272-9.7188-12.106-20.772-12.691-17.47-0.03146-78.713-0.11528-138.02 0z" fill="#d7e3f4" fill-rule="evenodd" stroke="#000" stroke-width=".25168"/>
    <rect x="50.332" y="122.51" width="166.5" height="206.7" fill="url(#linearGradient3405)" stroke-width="0"/>
    <path d="m206.75 117.47c30.228-5.038 47.843-7.2551 61.724-3.5024 6.1724 1.6687 6.176 1.8328 6.0767 17.816-0.50827-13.887-1.951-20.747-9.2223-28.037-35.777-35.866-43.504-43.408-56.203-55.62-10.25-11.036-15.246-12.399-20.772-12.691 16.953 1.3218 18.397 31.655 18.397 82.034z" fill="url(#linearGradient1159)" fill-rule="evenodd"/>
    <path d="m217.21 99.685c14.99 0.595 39.584 4.6336 48.866 11.08 3.9278 2.7277 8.5792 5.0371 8.4799 21.02-0.50827-13.887-1.951-20.747-9.2223-28.037-35.777-35.866-43.504-43.408-56.203-55.62-10.25-11.036-15.246-12.399-20.772-12.691 16.953 1.3218 25.129 17.979 28.851 64.248z" fill="url(#linearGradient3597)" fill-rule="evenodd" stroke="url(#linearGradient3257)" stroke-width=".25168"/>
  </g>
  <g transform="matrix(.056076 0 0 .056076 13.49 36.406)">
    <g fill-rule="evenodd" stroke="#000" stroke-linejoin="bevel" stroke-opacity=".2">
      <g fill-opacity=".2">
        <path d="m321.29 150.85a153.47 156.95 40.813 1 1-308.48 36.924 153.47 156.95 40.813 1 1 308.48-36.924z" stroke-width="17.833" style="paint-order:stroke fill markers"/>
        <path d="m321.29 150.85a153.47 156.95 40.813 1 1-308.48 36.924 153.47 156.95 40.813 1 1 308.48-36.924z" stroke-width="8.9165" style="paint-order:stroke fill markers"/>
        <path transform="matrix(.45981 -.055039 .044659 .46021 -28.935 13.97)" d="m707.06 362.61a335.44 335.44 0 1 1-670.88 0 335.44 335.44 0 1 1 670.88 0z" stroke-width="38.543" style="paint-order:stroke fill markers"/>
      </g>
      <path transform="matrix(.45981 -.055039 .044659 .46021 -28.935 13.97)" d="m707.06 362.61a335.44 335.44 0 1 1-670.88 0 335.44 335.44 0 1 1 670.88 0z" fill-opacity=".19723" stroke-width="19.272" style="paint-order:stroke fill markers"/>
    </g>
    <path transform="matrix(.45981 -.055039 .044659 .46021 -28.935 13.97)" d="m707.06 362.61a335.44 335.44 0 1 1-670.88 0 335.44 335.44 0 1 1 670.88 0z" fill="url(#radialGradient3193)" fill-rule="evenodd" stroke="#000" stroke-width="4.997"/>
    <path transform="matrix(.40397 -.044902 .039235 .37545 -5.4316 41.732)" d="m707.06 362.61a335.44 335.44 0 1 1-670.88 0 335.44 335.44 0 1 1 670.88 0z" fill="url(#radialGradient3195)" fill-rule="evenodd" stroke="#00f" stroke-opacity=".1883" stroke-width="9.9173"/>
    <path d="m185.58 109.32c-13.732-3.7258-118.28 9.1885-107.13 37.84 12.406 32.625 105.88 39.103 102.25 68.955-1.2899 10.378-33.155 20.297-57.563 19.247-25.764-1.1085-46.05-6.3129-63.98-26.608-11.258-12.743-15.921-28.232-17.124-46.662-1.2026-18.43 6.0935-38.832 16.286-53.935 22.393-33.182 50.332-52.409 89.105-57.55 91.425-11.682 126.09 65.862 125.77 64.239-0.331-1.7159-36.607-76.583-125.13-69.159-36.612 3.0706-62.782 21.504-84.155 43.604-14.892 15.41-26.023 37.162-29.132 58.782-4.5375 31.56 3.9176 59.394 25.32 79.574 17.944 16.919 46.811 23.131 77.381 23.811 42.94 0.95569 92.94-7.1293 93.349-24.932 9.5e-4 -32.123-73.462-41.833-88.992-57.992-30.443-31.055 48.15-24.6 62.086-19.142 1.3432 0.18019-11.337-38.261-18.35-40.071z" fill="url(#radialGradient3197)" stroke="#58b8ff" stroke-opacity=".72157" stroke-width="4.1513"/>
    <path d="m36.695 136.51c13.901 25.153 61.459 5.7715 104.15-17.652 42.692-23.424 84.538-51.534 70.637-76.687-13.901-25.153-80.13-23.319-116.12-3.0514-42.358 23.966-72.569 72.237-58.668 97.391z" fill="url(#linearGradient3199)" fill-rule="evenodd" stroke-width="5"/>
    <path transform="matrix(1.7117 0 0 1.4233 -1571.2 -154.88)" d="m1043.9 213.02a49.275 51.1 0 1 1-98.549 0 49.275 51.1 0 1 1 98.549 0z" fill="url(#radialGradient3060)" fill-rule="evenodd"/>
  </g>
</svg>
